shader_type particles;

uniform float rows = 4;
uniform float spacing = 1.0;

void start() {
	// Called when a particle is spawned.
}

void process() {
	// Called every frame on existing particles (according to the Fixed FPS property).
}
